com_jlsitemap/media/icons/cron.svg

<svg version="1.1" xmlns="http://www.w3.org/2000/svg" width="100" height="100" viewBox="0 0 100 100">
<title>cron</title>
<path d="M50 100c-27.614 0-50-22.386-50-50s22.386-50 50-50v0c27.614 0 50 22.386 50 50s-22.386 50-50 50v0zM50 90c22.091 0 40-17.909 40-40s-17.909-40-40-40v0c-22.091 0-40 17.909-40 40s17.909 40 40 40v0zM45 52.050v-32.050h10v27.95l19.75 19.75-7.050 7.050-22.7-22.7z"></path>
</svg>

<svg xmlns="http://www.w3.org/2000/svg" width="100" height="100" viewBox="0 0 100 100"><path d="M50 100C22.386 100 0 77.614 0 50S22.386 0 50 0s50 22.386 50 50-22.386 50-50 50zm0-10c22.091 0 40-17.909 40-40S72.091 10 50 10 10 27.909 10 50s17.909 40 40 40zm-5-37.95V20h10v27.95L74.75 67.7l-7.05 7.05L45 52.05z"/></svg>
